X:1
T:Plaintes d'amour
T:Plaintes d'amour
T:Cécile Chaminade
T:Eugène Adenis (trans. Dr. Th. Baker)
T:OpenScore (CC0)
T:OpenScore (CC0)
T:OpenScore (CC0)
T:OpenScore (CC0)
T:OpenScore (CC0)
T:OpenScore (CC0)
T:OpenScore (CC0)
T:OpenScore (CC0)
C:Cécile Chaminade
Z:Eugène Adenis
Z:OpenScore (CC0)
%%score ( 1 2 ) { 3 | ( 4 5 ) }
L:1/8
Q:1/4=120
M:4/4
K:C
V:1 treble nm="Voice"
V:2 treble 
V:3 treble nm="Piano"
V:4 bass 
V:5 bass 
V:1
 z8 | z4 z2 z"^vibrato"!mf! E | G3 E!<(! F3 G!<)! |!f! (B d2) c G4 |!<(! c d!<)! e3 c B A | %5
w: |L'a-|mour, l'a- mour, fleur|que Dieu bé- nit,|Quel- que temps s'é- pa- nou-|
w: |'Tis|love, 'tis love, bright|flow- er di- vine,|Has a day to bloom in|
 G3 z z2 !fermata!z!p! G |"^dolce" _B2 B2!<(! B2 _c!<)! =d |!>(! (_e4!>)! !breath!_B2) B B | %8
w: it, Mais|il res- semble à la|ro- se; Mé- té-|
w: fine, But|as a rose doth it|van- ish; Like the|
!mf! =B2 B2 B2 B2 | %9
w: o- re du des-|
w: sun- lit sky of|
"^poco rit."[Q:1/4=110] B4-"^(without taking breath.)" B3!p! G[Q:1/4=105][Q:1/4=100][Q:1/4=95] | %10
w: tin * Il|
w: dawn * It|
[Q:1/4=120]"^a tempo" G3 E"^cresc." !breath!F3!<(! G | (B!<)! d2) c G4 | %12
w: brille, il brille a-|vec le ma- tin|
w: glows, it glows in|splen- dor at morn,|
!f! c2"^poco rit."[Q:1/4=110]!>(! G2[Q:1/4=100] E F G A!>)![Q:1/4=115][Q:1/4=105] |!p! (E4 D4) | %14
w: Pour s'é- teindre à la nuit|clo- *|
w: That the com- ing night doth|ban- *|
[Q:1/4=120]"^a tempo" C3 z z4 | z4 z2 z!mf! E | G3 E!<(! F3 G!<)! |!f! (B d2) c G3!<(! G | %18
w: se.|L'a-|mour, l'a- mour, pur|ray- on ver- meil, C'est|
w: ish.|'Tis|love, 'tis love, fair|day- star so bright, En-|
 c d!<)! (e3 c) B A | G3 z z2 !fermata!z!p! G |"^dolce" _B2 B2!<(! B2 _c =d!<)! | %21
w: la sai- son * du so-|leil, Mais|vite il nous a- ban-|
w: tran- cing sea- son of de-|light, Not|long our bo- som may|
!>(! (_e4 _B2)!>)! z!mf! B |!mf! =B2 B2 B2 B B | %23
w: don- ne. Jou-|et fra- gi- le du|
w: cher- ish; A|frag- ile play- thing of|
"^poco rit."[Q:1/4=115] B4-"^(without taking breath )"[Q:1/4=100] B3!p! G[Q:1/4=110][Q:1/4=95] | %24
w: temps, * Il|
w: time, * 'Tis|
[Q:1/4=120]"^a tempo" G3"^cresc." E!<(! !breath!F3 G!<)! | (B d2) c G4 | %26
w: naît, il naît a-|vec le prin- temps|
w: born, 'tis born of|Spring at her prime,|
!f!"^poco rit."[Q:1/4=110] c2[Q:1/4=100] G2!>(! E F G A!>)! |!p! (E4 D4) | %28
w: Pour mou- rir a- vec l'au-|tom- *|
w: And with Au- * tumn doth|per- *|
[Q:1/4=120]"^a tempo" C3 z z4 | z4 z2 z!mf! E | G3 E!<(! F3 G!<)! | (B d2) c G4 | %32
w: ne.|L'a-|mour, l'a- mour, lyre|au chant vain- queur|
w: ish.|'Tis|love's, 'tis love's tri-|umph- * ant song|
!f!!<(! c d!<)! e3 c B A | G3 z z2 !fermata!z!p! G | _B2 B2!<(! B2 _c =d!<)! | %35
w: Fait gaî- ment vi- brer le|coeur. Mais|qu'il nous cau- se d'a-|
w: Thrills the heart so sweet and|strong, Yet|cares do fol- low un-|
!>(! (_e4!>)! _B3) z |!mf! =B2 B B B2 B B | %37
w: lar- mes!|Ca- pri- ci- eux et chan-|
w: sleep- ing!|Fac- ile and wan- ton in|
!p!"^poco rit."[Q:1/4=110]!>(! B4-"^(without taking breath)" (B4!>)![Q:1/4=105][Q:1/4=100][Q:1/4=95] | %38
w: geant *|
w: wiles, *|
[Q:1/4=120]"^a tempo"!p!{/G)} G3"^cresc." E !breath!F3!<(! G | (B!<)! d2) c G4 | %40
w: Il com- mence en|sou- * ri- ant,|
w: Tho' he greet- eth|us * with smiles,|
!f! c2"^poco rit."[Q:1/4=110]!>(! G2[Q:1/4=105] E F[Q:1/4=100] G A!>)![Q:1/4=115] | %41
w: Pour fi- nir a- vec des|
w: He for- sak- eth us in|
[Q:1/4=95]!p!!>(! (E4 D4)!>)! |[Q:1/4=120]"^a tempo" C3 z z4 | z8 |] %44
w: lar- *|mes!||
w: weep- *|ing!||
V:2
 x8 | x8 | x8 | x8 | x8 | x8 | x8 | x8 | x8 | x8 | x8 | x8 | x8 | x8 | x8 | x8 | x8 | x8 | x8 | %19
 x8 | x8 | x8 | x8 | x8 | x8 | x8 | x4 (EF) G x | x8 | x8 | x8 | x8 | x8 | x8 | x8 | x8 | x8 | x8 | %37
 x8 | x8 | x8 | x8 | x8 | x8 | x8 |] %44
V:3
 z/ (G,/C/E/ G/c/e/g/ !4!f/!2!B/G/F/ B,/G,/G-) | (G/G,/C/E/ G/c/e/g/ f/B/G/F/ B,/G,/G-) | %2
 (G/G,/C/E/ G/c/e/g/ f/B/G/F/ B,/G,/G-) | (G/G,/C/E/ G/c/e/g/ f/B/G/F/ B,/G,/G) | %4
 z/!<(! (G,/E/G/) z/ (C/E/^G/)!<)! z/ (C/E/A/) z/ (^F,/C/^F/) | %5
 z/ (=G,/B,/D/ =G/B/d/g/"_m.g." ^f/g/"^m.d." b/d'/ g'/) !fermata!z/ z | %6
!pp! (_b/!<(!_B/_e/B/ b/B/e/B/ b/B/e/B/ _c'/_c/=d/c/)!<)! | %7
 (_b/_B/_e/B/ b/B/e/B/ b/B/e/B/ b/B/e/B/) | x8 | x8 | %10
 z/ (G/c/e/ g/c'/e'/g'/"_cresc." f'/b/g/f/ B/G/g-) | (g/G/c/e/ g/c'/e'/g'/ f'/b/g/f/ B/G/g) | %12
!mf! !arpeggio![ceac'] z!>(! !arpeggio![GBdg] z !arpeggio![EGce] z !arpeggio![CEAc] z!>)! | %13
!p!!>(![I:staff +1] !arpeggio![C,F,A,C]4!>)! !arpeggio![D,F,G,B,]4 | %14
[I:staff -1] z/"_cresc." (G,/C/E/ G/c/e/g/ f/B/G/F/ B,/G,/G-) | %15
 (G/G,/C/E/ G/c/e/g/ f/B/G/F/ B,/G,/G-) | (G/G,/C/E/ G/c/e/g/ f/B/G/F/ B,/G,/G-) | %17
 (G/G,/C/E/ G/c/e/g/ f/B/G/F/ B,/G,/G) | %18
 z/!<(! (G,/E/G/) z/ (C/E/^G/)!<)! z/ (C/E/A/) z/ (^F,/C/^F/) | %19
 z/ (=G,/B,/D/ =G/B/d/g/"_m.g." ^f/g/"^m.d." b/d'/ g'/) !fermata!z/ z | %20
!pp! (_b/!<(!_B/_e/B/ b/B/e/B/ b/B/e/B/ _c'/_c/=d/c/)!<)! | %21
!mp! (_b/_B/_e/B/ b/B/e/B/ b/B/e/B/ b/B/e/B/) | x8 | x8 | %24
 z/ (G/c/e/ g/c'/e'/g'/"_cresc." f'/b/g/f/ B/G/g-) | (g/G/c/e/ g/c'/e'/g'/ f'/b/g/f/ B/G/g) | %26
!mf! !arpeggio![ceac'] z!>(! !arpeggio![GBdg] z !arpeggio![EGce] z !arpeggio![CEAc] z!>)! | %27
!p!!>(![I:staff +1] !arpeggio![C,F,A,C]4 !arpeggio![D,F,G,B,]4!>)! | %28
[I:staff -1] z/"_cresc." (G,/C/E/ G/c/e/g/ f/B/G/F/ B,/G,/G-) | %29
 (G/G,/C/E/ G/c/e/g/ f/B/G/F/ B,/G,/G-) | (G/G,/C/E/ G/c/e/g/ f/B/G/F/ B,/G,/G-) | %31
 (G/G,/C/E/ G/c/e/g/ f/B/G/F/ B,/G,/G) | z/ (G,/E/G/) z/ (C/E/^G/) z/ (C/E/A/) z/ (^F,/C/^F/) | %33
 z/ (=G,/B,/D/ =G/B/d/g/"_m.g." ^f/g/"^m.d." b/d'/ g'/) !fermata!z/ z | %34
!p! (_b/_B/_e/B/ b/B/e/B/ b/B/e/B/ _c'/_c/=d/c/) | (_b/_B/_e/B/ b/B/e/B/ b/B/e/B/ b/B/e/B/) | x8 | %37
 x8 | z/ (G/"_cresc."c/e/ g/c'/e'/g'/ f'/b/g/f/ B/G/g-) | (g/G/c/e/ g/c'/e'/g'/ f'/b/g/f/ B/G/g) | %40
!f! !arpeggio![ceac'] z!>(! !arpeggio![GBdg] z !arpeggio![EGce] z !arpeggio![CEAc] z!>)! | %41
!p!!>(![I:staff +1] !arpeggio![C,F,A,C]4!>)! !arpeggio![D,F,G,B,]4 | %42
[I:staff -1] z/[I:staff +1] (G,/C/E/!<(![I:staff -1] G/c/g/e/ c/G/E/C/!<)!!f![I:staff +1] G,/E,/C,/G,,/) | %43
!f![I:staff -1] z2 !^![cec']2 z4 |] %44
V:4
!mf!"^legatissimo"!ped! C,3 G,,!ped-up!!ped! D,3 G,,!ped-up! |!ped! E,3 G,,!ped-up! D,3 G,, | %2
 !arpeggio!E,3 G,, D,3 G,, | E,3 G,, D,3 G,, | z2 !>!^G,2 !>!A,2 [D,,D,]2 | %5
!ped! !fermata![G,,G,]8!ped-up! |[K:treble] (_E/G/E/G/ E/G/E/G/ E/G/E/G/ E/_A/E/A/) | %7
 (_E/G/E/G/ E/G/E/G/ E/G/E/G/ E/G/E/G/) | %8
!mf!!ped! (=A,/4^D/4^F/4=A/4[I:staff -1]=B/4^d/4^f/4b/4)[I:staff +1] (A,/4D/4F/4A/4[I:staff -1]B/4d/4f/4b/4)[I:staff +1] (A,/4D/4F/4A/4"^dim."[I:staff -1]B/4d/4f/4b/4)[I:staff +1] (A,/4D/4F/4A/4[I:staff -1]B/4d/4f/4b/4) | %9
!p![I:staff +1] (A,/"^rit."^D/^F/A/[I:staff -1]B/^d/^f/b/)!ped-up![I:staff +1][K:bass] (=G,,/=D,/=F,/=G,/[I:staff -1] =B,/=F/=G/B/) | %10
!ped![I:staff +1] [G,E]4 [G,-D]2 [G,F]2!ped-up! | [G,E]4 [G,-D]2 [G,F]2 | %12
 !arpeggio![A,CEA]"^poco rit." z !arpeggio![B,DF] z !arpeggio![C,G,C] z !arpeggio![A,,E,A,] z | %13
 [F,,,C,,F,,]4 [G,,,G,,]4 | z2 z G,, D,3 G,, | E,3 G,, D,3 G,, | !arpeggio!E,3 G,, D,3 G,, | %17
 E,3 G,, D,3 G,, | z2 !>!^G,2 !>!A,2 !>![D,,D,]2 |!ped! !fermata![G,,,G,,]8!ped-up! | %20
[K:treble] (_E/G/E/G/ E/G/E/G/ E/G/E/G/ E/_A/E/A/) | (_E/G/E/G/ E/G/E/G/ E/G/E/G/ E/G/E/G/) | %22
!mf!!ped! (=A,/4^D/4^F/4=A/4[I:staff -1]=B/4^d/4^f/4=b/4)[I:staff +1] (A,/4D/4F/4A/4[I:staff -1]B/4d/4f/4b/4)[I:staff +1] (A,/4"^dim."D/4F/4A/4[I:staff -1]B/4d/4f/4b/4)[I:staff +1] (A,/4D/4F/4A/4[I:staff -1]B/4d/4f/4b/4) | %23
!p![I:staff +1] (A,/^D/^F/A/[I:staff -1]B/^d/^f/b/)!ped-up![I:staff +1][K:bass]"^rit."!ped! (G,,/=D,/=F,/G,/[I:staff -1] B,/=F/G/B/)!ped-up! | %24
!ped![I:staff +1] [G,E]4 [G,-D]2 [G,F]2!ped-up! | [G,E]4 [G,-D]2 [G,F]2 | %26
 !arpeggio![A,CEA]"^poco rit." z !arpeggio![B,DF] z !arpeggio![C,G,C] z !arpeggio![A,,E,A,] z | %27
 [F,,,C,,F,,]4 [G,,,G,,]4 | z2 z G,, D,3 G,, | E,3 G,, D,3 G,, | !arpeggio!E,3 G,, D,3 G,, | %31
 E,3 G,, D,3 G,, | z2 !>!^G,2 !>!A,2 [D,,D,]2 |!ped! !fermata![G,,G,]8!ped-up! | %34
[K:treble] (_E/G/E/G/ E/G/E/G/ E/G/E/G/ E/_A/E/A/) | (_E/G/E/G/ E/G/E/G/ E/G/E/G/ E/G/E/G/) | %36
!mf!!ped! (=A,/4^D/4^F/4=A/4[I:staff -1]=B/4^d/4^f/4b/4)[I:staff +1] (A,/4D/4F/4A/4[I:staff -1]B/4d/4f/4b/4)[I:staff +1] (A,/4D/4F/4A/4"^dim."[I:staff -1]B/4d/4f/4b/4)[I:staff +1] (A,/4D/4F/4A/4[I:staff -1]B/4d/4f/4b/4) | %37
!p![I:staff +1] (A,/"^rit."^D/^F/A/[I:staff -1]B/^d/^f/b/)!ped-up![I:staff +1][K:bass]!ped! (=G,,/=D,/=F,/=G,/[I:staff -1] B,/=F/=G/B/)!ped-up! | %38
[I:staff +1] [G,E]4 [G,-D]2 [G,F]2 | [G,E]4 [G,-D]2 [G,F]2 | %40
 !arpeggio![A,CEA]"^poco rit." z !arpeggio![B,DF] z !arpeggio![C,G,C] z !arpeggio![A,,E,A,] z | %41
 [F,,,C,,F,,]4 [G,,,G,,]4 |!ped! !arpeggio![C,,G,,E,]4 z4 | z2!ff! !^![G,CE]2!ped-up! z4 |] %44
V:5
 C,,4 D,,4 | E,,4 D,,4 | C,,4 D,,4 | E,,4 D,,4 | [C,,C,]6 x2 | x8 |[K:treble] x8 | x8 | x8 | %9
 !>!A,4[K:bass] !>![G,,,G,,]4 | z2 G,,6 | z2 !>!G,,6 | x8 | x8 | [C,,,C,,]4 D,,4 | E,,4 D,,4 | %16
 C,,4 D,,4 | E,,4 D,,4 | [C,,C,]6 x2 | x8 |[K:treble] x8 | x8 | x8 | A,4[K:bass] !>![G,,,G,,]4 | %24
 z2 G,,6 | z2 G,,6 | x8 | x8 | [C,,,C,,]4 D,,4 | E,,4 D,,4 | C,,4 D,,4 | E,,4 D,,4 | [C,,C,]6 x2 | %33
 x8 |[K:treble] x8 | x8 | x8 | !>!A,4[K:bass] !>![=G,,,G,,]4 | z2 G,,6 | z2 G,,6 | x8 | x8 | x8 | %43
 !^![C,,,C,,]4 z4 |] %44

